
MODULE Camera_Calibration_Positions
	PROC go_to_positions()
		MoveL [[-85.47,181.49,459.51],[0.0098585,-0.99159,0.0975992,-0.0844139],[0,0,1,0],[9E+09,9E+09,9E+09,9E+09,9E+09,9E+09]], v1000, z50, tool0\WObj:=wobj_grab;
        MoveL [[-85.47,102.57,459.51],[0.00985644,-0.99159,0.0975973,-0.0844157],[0,0,1,0],[9E+09,9E+09,9E+09,9E+09,9E+09,9E+09]], v1000, z50, tool0\WObj:=wobj_grab;
        MoveL [[-85.47,41.29,459.51],[0.00985094,-0.99159,0.097597,-0.0844208],[0,0,1,0],[9E+09,9E+09,9E+09,9E+09,9E+09,9E+09]], v1000, z50, tool0\WObj:=wobj_grab;
        MoveL [[-85.47,9.13,459.50],[0.00984843,-0.991589,0.0976057,-0.0844217],[0,0,1,0],[9E+09,9E+09,9E+09,9E+09,9E+09,9E+09]], v1000, z50, tool0\WObj:=wobj_grab;
        MoveL [[-32.53,9.13,459.49],[0.00984388,-0.99159,0.0975977,-0.0844208],[0,0,1,0],[9E+09,9E+09,9E+09,9E+09,9E+09,9E+09]], v1000, z50, tool0\WObj:=wobj_grab;
        MoveL [[-36.45,99.83,459.49],[0.00983787,-0.991591,0.0975863,-0.0844192],[0,0,1,0],[9E+09,9E+09,9E+09,9E+09,9E+09,9E+09]], v1000, z50, tool0\WObj:=wobj_grab;
        MoveL [[-36.45,181.34,459.49],[0.00983493,-0.991592,0.0975781,-0.0844211],[0,0,1,0],[9E+09,9E+09,9E+09,9E+09,9E+09,9E+09]], v1000, z50, tool0\WObj:=wobj_grab;
        MoveL [[-61.44,185.11,460.13],[0.0166274,-0.980427,0.17759,-0.0833481],[0,0,1,0],[9E+09,9E+09,9E+09,9E+09,9E+09,9E+09]], v1000, z50, tool0\WObj:=wobj_grab;
        MoveL [[-92.99,22.03,461.38],[0.0166067,-0.980431,0.177569,-0.0833512],[0,0,1,0],[9E+09,9E+09,9E+09,9E+09,9E+09,9E+09]], v1000, z50, tool0\WObj:=wobj_grab;
        MoveL [[-47.84,16.24,461.36],[0.0165986,-0.980433,0.177562,-0.0833524],[0,0,1,0],[9E+09,9E+09,9E+09,9E+09,9E+09,9E+09]], v1000, z50, tool0\WObj:=wobj_grab;
        MoveL [[-54.36,11.00,461.35],[0.000999429,-0.996367,-0.00554216,-0.0849763],[0,0,1,0],[9E+09,9E+09,9E+09,9E+09,9E+09,9E+09]], v1000, z50, tool0\WObj:=wobj_grab;
        MoveL [[-85.57,171.16,461.34],[0.000983275,-0.996367,-0.00556148,-0.0849734],[0,0,1,0],[9E+09,9E+09,9E+09,9E+09,9E+09,9E+09]], v1000, z50, tool0\WObj:=wobj_grab;
        MoveL [[-51.14,178.35,461.33],[0.000974387,-0.996367,-0.00555698,-0.0849716],[0,0,1,0],[9E+09,9E+09,9E+09,9E+09,9E+09,9E+09]], v1000, z50, tool0\WObj:=wobj_grab;
        MoveL [[-97.47,188.67,461.32],[0.00122586,-0.991174,-0.00551729,-0.132446],[0,0,1,0],[9E+09,9E+09,9E+09,9E+09,9E+09,9E+09]], v1000, z50, tool0\WObj:=wobj_grab;
        MoveL [[-97.47,188.67,460.91],[0.0187444,-0.98318,0.125748,-0.131119],[0,0,1,0],[9E+09,9E+09,9E+09,9E+09,9E+09,9E+09]], v1000, z50, tool0\WObj:=wobj_grab;
        MoveL [[-88.00,200.44,460.90],[0.0141819,-0.966632,0.223317,-0.124699],[0,0,1,0],[9E+09,9E+09,9E+09,9E+09,9E+09,9E+09]], v1000, z50, tool0\WObj:=wobj_grab;
        MoveL [[-94.47,119.88,382.12],[0.00201929,0.987351,-0.0968866,0.125486],[0,0,1,0],[9E+09,9E+09,9E+09,9E+09,9E+09,9E+09]], v1000, z50, tool0\WObj:=wobj_grab;
        MoveL [[-94.48,17.72,487.41],[0.0127827,-0.969044,0.212607,-0.124852],[0,0,1,0],[9E+09,9E+09,9E+09,9E+09,9E+09,9E+09]], v1000, z50, tool0\WObj:=wobj_grab;
        MoveL [[-94.47,17.72,487.40],[0.0181366,0.991616,0.0307558,0.124188],[0,0,1,0],[9E+09,9E+09,9E+09,9E+09,9E+09,9E+09]], v1000, z50, tool0\WObj:=wobj_grab;
        MoveL [[20.90,71.29,487.37],[0.00157305,-0.996628,0.0819229,0.00427052],[0,0,1,0],[9E+09,9E+09,9E+09,9E+09,9E+09,9E+09]], v1000, z50, tool0\WObj:=wobj_grab;
        MoveL [[20.90,71.29,487.37],[0.00111949,-0.982759,0.184833,0.00440937],[0,0,1,0],[9E+09,9E+09,9E+09,9E+09,9E+09,9E+09]], v1000, z50, tool0\WObj:=wobj_grab;
        MoveL [[20.90,71.29,487.36],[0.00188636,-0.999969,0.00637674,0.00413913],[0,0,1,0],[9E+09,9E+09,9E+09,9E+09,9E+09,9E+09]], v1000, z50, tool0\WObj:=wobj_grab;
        MoveL [[1.71,152.97,456.64],[0.00177153,-0.999908,0.00639761,-0.0117698],[0,0,1,0],[9E+09,9E+09,9E+09,9E+09,9E+09,9E+09]], v1000, z50, tool0\WObj:=wobj_grab;
        MoveL [[0.47,51.35,458.44],[0.00480552,-0.962596,0.270678,-0.0108855],[0,0,1,0],[9E+09,9E+09,9E+09,9E+09,9E+09,9E+09]], v1000, z50, tool0\WObj:=wobj_grab;
        MoveL [[-9.40,122.88,458.39],[0.0931352,0.98886,-0.0961851,0.0650385],[0,-1,1,0],[9E+09,9E+09,9E+09,9E+09,9E+09,9E+09]], v1000, z50, tool0\WObj:=wobj_grab;
        MoveL [[-51.65,122.88,458.39],[0.0931381,0.988859,-0.0961848,0.0650401],[0,-1,1,0],[9E+09,9E+09,9E+09,9E+09,9E+09,9E+09]], v1000, z50, tool0\WObj:=wobj_grab;
        MoveL [[-56.66,312.20,458.38],[0.0931474,0.98886,-0.09617,0.0650406],[0,-1,1,0],[9E+09,9E+09,9E+09,9E+09,9E+09,9E+09]], v1000, z50, tool0\WObj:=wobj_grab;
        MoveL [[-24.47,312.19,458.37],[0.0986171,0.993499,-0.00704613,0.0564196],[0,-1,1,0],[9E+09,9E+09,9E+09,9E+09,9E+09,9E+09]], v1000, z50, tool0\WObj:=wobj_grab;
        MoveL [[-28.45,73.83,455.79],[0.0879608,-0.994499,0.0135986,-0.0552235],[0,0,1,0],[9E+09,9E+09,9E+09,9E+09,9E+09,9E+09]], v1000, z50, tool0\WObj:=wobj_grab;
        MoveL [[-46.37,82.71,455.78],[0.0931582,-0.987836,0.115735,-0.0458921],[0,0,1,0],[9E+09,9E+09,9E+09,9E+09,9E+09,9E+09]], v1000, z50, tool0\WObj:=wobj_grab;
        MoveL [[-59.49,-89.29,455.77],[0.0931448,-0.987837,0.115733,-0.0458955],[0,0,1,0],[9E+09,9E+09,9E+09,9E+09,9E+09,9E+09]], v1000, z50, tool0\WObj:=wobj_grab;
        MoveL [[-12.32,-90.28,455.76],[0.0959268,-0.978216,0.179751,-0.0397398],[0,0,1,0],[9E+09,9E+09,9E+09,9E+09,9E+09,9E+09]], v1000, z50, tool0\WObj:=wobj_grab;
	ENDPROC

ENDMODULE